app/assets/images/heroicons/outline/document-currency-pound.svg

<svg width="24" height="24" viewBox="0 0 24 24" fill="none" xmlns="http://www.w3.org/2000/svg">
<path d="M19.5 14.25V11.625C19.5 9.76104 17.989 8.25 16.125 8.25H14.625C14.0037 8.25 13.5 7.74632 13.5 7.125V5.625C13.5 3.76104 11.989 2.25 10.125 2.25H8.25M14.8713 12.1287C13.6997 10.9571 11.8003 10.9571 10.6287 12.1287C9.84361 12.9138 9.58461 14.0257 9.85169 15.0264L10.0147 15.6348C10.2511 16.5171 10.2134 17.4503 9.90673 18.3107L9.75016 18.7498L10.1895 18.5302C10.8686 18.1906 11.6548 18.1347 12.3752 18.3748C13.0955 18.6149 13.8817 18.5591 14.5608 18.2195L15.0002 17.9998M8.25 15.75H12M10.5 2.25H5.625C5.00368 2.25 4.5 2.75368 4.5 3.375V20.625C4.5 21.2463 5.00368 21.75 5.625 21.75H18.375C18.9963 21.75 19.5 21.2463 19.5 20.625V11.25C19.5 6.27944 15.4706 2.25 10.5 2.25Z" stroke="black" stroke-width="1.5" stroke-linecap="round" stroke-linejoin="round"/>
</svg>

<svg xmlns="http://www.w3.org/2000/svg" fill="none" viewBox="0 0 24 24" stroke-width="1.5" stroke="currentColor" aria-hidden="true" data-slot="icon">
  <path stroke-linecap="round" stroke-linejoin="round" d="M19.5 14.25v-2.625a3.375 3.375 0 0 0-3.375-3.375h-1.5A1.125 1.125 0 0 1 13.5 7.125v-1.5a3.375 3.375 0 0 0-3.375-3.375H8.25m6.621 9.879a3 3 0 0 0-5.02 2.897l.164.609a4.5 4.5 0 0 1-.108 2.676l-.157.439.44-.22a2.863 2.863 0 0 1 2.185-.155c.72.24 1.507.184 2.186-.155L15 18M8.25 15.75H12m-1.5-13.5H5.625c-.621 0-1.125.504-1.125 1.125v17.25c0 .621.504 1.125 1.125 1.125h12.75c.621 0 1.125-.504 1.125-1.125V11.25a9 9 0 0 0-9-9Z"/>
</svg>
